wp-content/uploads/2025/03/04.Develop.svg

<svg width="72" height="72" viewBox="0 0 72 72" fill="none" xmlns="http://www.w3.org/2000/svg">
<g clip-path="url(#clip0_3303_10854)">
<rect width="72" height="72" rx="36" fill="#2965FF"/>
<mask id="mask0_3303_10854" style="mask-type:luminance" maskUnits="userSpaceOnUse" x="0" y="0" width="72" height="72">
<path d="M72 0L0 0L0 72H72V0Z" fill="white"/>
</mask>
<g mask="url(#mask0_3303_10854)">
<path d="M61.4504 32.9078C61.4263 34.3598 60.4636 35.6274 59.0758 36.0445L43.9457 40.5851C42.3413 41.0745 41.0898 42.326 40.6085 43.9224L36.0679 59.0524C35.6507 60.4403 34.3752 61.403 32.9311 61.427C31.4791 61.4752 30.1635 60.5767 29.6741 59.2048L17.023 21.2675C16.4373 19.5186 17.384 17.6253 19.1328 17.0397C19.8227 16.8071 20.5608 16.8071 21.2427 17.0397L59.1881 29.6828C60.5599 30.1562 61.4744 31.4558 61.4423 32.9078H61.4504Z" fill="white"/>
</g>
</g>
<defs>
<clipPath id="clip0_3303_10854">
<rect width="72" height="72" rx="36" fill="white"/>
</clipPath>
</defs>
</svg>

<svg xmlns="http://www.w3.org/2000/svg" width="72" height="72" fill="none"><g clip-path="url(#a)"><rect width="72" height="72" fill="#2965FF" rx="36"/><mask id="b" width="72" height="72" x="0" y="0" maskUnits="userSpaceOnUse" style="mask-type:luminance"><path fill="#fff" d="M72 0H0v72h72z"/></mask><g mask="url(#b)"><path fill="#fff" d="M61.45 32.908a3.335 3.335 0 0 1-2.374 3.136l-15.13 4.541a5 5 0 0 0-3.337 3.337l-4.541 15.13a3.34 3.34 0 0 1-3.137 2.375 3.34 3.34 0 0 1-3.257-2.222L17.023 21.268a3.34 3.34 0 0 1 2.11-4.228 3.28 3.28 0 0 1 2.11 0l37.945 12.643a3.34 3.34 0 0 1 2.254 3.225z"/></g></g><defs><clipPath id="a"><rect width="72" height="72" fill="#fff" rx="36"/></clipPath></defs></svg>
